icons/mobile/16/svg/shield-slash-fill-16.svg

<svg width="16" height="16" viewBox="0 0 16 16" fill="none" xmlns="http://www.w3.org/2000/svg">
<path d="M1.68219 2.68218C1.92612 2.43825 2.32284 2.43855 2.56696 2.68218L13.317 13.4322C13.561 13.6763 13.561 14.0729 13.317 14.3169C13.0729 14.561 12.6763 14.561 12.4322 14.3169L10.5865 12.4712C10.0978 12.9603 9.56201 13.3882 8.99958 13.7251C8.69281 13.9089 8.34818 14.0005 8.00348 14.0005C7.6535 14.0005 7.30087 13.9063 6.98688 13.7173C5.90793 13.0674 4.91216 12.0941 4.18317 10.9761C3.78917 10.3701 3.511 9.6346 3.357 8.7896L3.03376 7.01324C2.92287 6.40597 3.09537 5.79763 3.46344 5.3482L1.68219 3.56695C1.43856 3.32283 1.43827 2.92611 1.68219 2.68218Z" fill="black"/>
<path d="M6.86481 3.3482C7.55572 2.88126 8.44266 2.88417 9.12262 3.35699C9.52762 3.63899 9.95334 3.90317 10.3843 4.14117C10.8441 4.39603 11.3159 4.62487 11.7877 4.82378C12.6417 5.18378 13.1384 6.11844 12.9674 7.04644L12.6451 8.79546C12.5131 9.51392 12.2722 10.1355 11.9625 10.6822L7.99958 6.72027L5.47516 4.17437C5.95208 3.92141 6.42088 3.64813 6.86481 3.3482Z" fill="black"/>
</svg>

<!-- This Source Code Form is subject to the terms of the Mozilla Public
   - License, v. 2.0. If a copy of the MPL was not distributed with this
   - file, You can obtain one at http://mozilla.org/MPL/2.0/. -->
<svg xmlns="http://www.w3.org/2000/svg" width="16" height="16" fill="none" viewBox="0 0 16 16">
    <path fill="#000" d="M1.682 2.682a.627.627 0 0 1 .885 0l10.75 10.75a.626.626 0 0 1-.885.885l-1.846-1.846A8.3 8.3 0 0 1 9 13.725a1.94 1.94 0 0 1-.997.276 1.97 1.97 0 0 1-1.016-.284c-1.08-.65-2.075-1.623-2.804-2.74-.394-.607-.672-1.342-.826-2.187l-.323-1.777a2.05 2.05 0 0 1 .43-1.665L1.681 3.567a.627.627 0 0 1 0-.885m5.184.666a1.98 1.98 0 0 1 2.258.009 14.6 14.6 0 0 0 2.665 1.467c.854.36 1.35 1.294 1.18 2.222l-.323 1.75a6 6 0 0 1-.682 1.886L8 6.72 5.475 4.174a15 15 0 0 0 1.39-.826" />
</svg>
